static/img/icons-concept-meaning-do.svg

<svg width="240" height="240" viewBox="0 0 240 240" fill="none" xmlns="http://www.w3.org/2000/svg"><path fill="#fff" d="M0 0h240v240H0z"/><path stroke="#DFDFDF" d="M39.5 39.5h160v160h-160z"/><path d="M49.5 39.5v160m10-160v160m10-160v160m10-160v160m10-160v160m10-160v160m10-160v160m10-160v160m10-160v160m10-160v160m10-160v160m10-160v160m10-160v160m10-160v160m10-160v160m10-150h-160m160 10h-160m160 10h-160m160 10h-160m160 10h-160m160 10h-160m160 10h-160m160 10h-160m160 10h-160m160 10h-160m160 10h-160m160 10h-160m160 10h-160m160 10h-160m160 10h-160" stroke="#DFDFDF" stroke-linecap="square"/><path fill-rule="evenodd" clip-rule="evenodd" d="M211 39c5.523 0 10-4.477 10-10s-4.477-10-10-10-10 4.477-10 10 4.477 10 10 10Z" fill="#17AA55"/><path d="m207 29.069 2.981 2.98 6.05-6.049" stroke="#fff" stroke-width="2" stroke-linecap="round"/><path d="M182.357 69.265v-1.207l-.853.853-36.797 36.796a8.071 8.071 0 0 1-11.414-11.414l36.796-36.797.853-.853h-20.513a8.072 8.072 0 1 1 0-16.143H198.5v48.071a8.072 8.072 0 0 1-16.143 0V69.265ZM70.768 182.504l-.853.853h17.657a8.072 8.072 0 0 1 0 16.143H39.5v-48.071a8.072 8.072 0 1 1 16.143 0V174.8l.853-.854 36.797-36.796a8.071 8.071 0 0 1 11.414 11.414l-33.939 33.94Z" fill="#6E49CB" fill-opacity=".3" stroke="#6E49CB"/></svg>

<svg width="240" height="240" xmlns="http://www.w3.org/2000/svg"><g fill="none" fill-rule="evenodd"><path fill="#FFF" d="M0 0h240v240H0z"/><g stroke="#DFDFDF"><path d="M39.5 39.5h160v160h-160z"/><g stroke-linecap="square"><path d="M49.5 39.5v160M59.5 39.5v160M69.5 39.5v160M79.5 39.5v160M89.5 39.5v160M99.5 39.5v160M109.5 39.5v160M119.5 39.5v160M129.5 39.5v160M139.5 39.5v160M149.5 39.5v160M159.5 39.5v160M169.5 39.5v160M179.5 39.5v160M189.5 39.5v160M199.5 49.5h-160M199.5 59.5h-160M199.5 69.5h-160M199.5 79.5h-160M199.5 89.5h-160M199.5 99.5h-160M199.5 109.5h-160M199.5 119.5h-160M199.5 129.5h-160M199.5 139.5h-160M199.5 149.5h-160M199.5 159.5h-160M199.5 169.5h-160M199.5 179.5h-160M199.5 189.5h-160"/></g></g><g transform="translate(201 19)"><circle fill="#17AA55" cx="10" cy="10" r="10"/><path stroke="#FFF" stroke-width="2" stroke-linecap="round" d="M6 10.069l2.98 2.98L15.03 7"/></g><path d="M99.5 99.5v40h40v-40h-40zm0-30v-20H69c-10.77 0-19.5 8.73-19.5 19.5v30.5h20v-30h30zm-30 70h-20V170c0 10.77 8.73 19.5 19.5 19.5h30.5v-20h-30v-30zm100-40h20V69c0-10.77-8.73-19.5-19.5-19.5h-30.5v20h30v30zm-30 70v20H170c10.77 0 19.5-8.73 19.5-19.5v-30.5h-20v30h-30z" stroke="#6E49CB" fill-opacity=".3" fill="#6E49CB"/></g></svg>
